dist/img/icons/close-modal-icon.svg

<svg width="15" height="15" viewBox="0 0 15 15" fill="none" xmlns="http://www.w3.org/2000/svg">
<path d="M10.5781 7.5L14.4844 3.59375C14.9922 3.125 14.9922 2.34375 14.4844 1.875L13.625 1.01562C13.1562 0.507812 12.375 0.507812 11.9062 1.01562L8 4.92188L4.05469 1.01562C3.58594 0.507812 2.80469 0.507812 2.33594 1.01562L1.47656 1.875C0.96875 2.34375 0.96875 3.125 1.47656 3.59375L5.38281 7.5L1.47656 11.4453C0.96875 11.9141 0.96875 12.6953 1.47656 13.1641L2.33594 14.0234C2.80469 14.5312 3.58594 14.5312 4.05469 14.0234L8 10.1172L11.9062 14.0234C12.375 14.5312 13.1562 14.5312 13.625 14.0234L14.4844 13.1641C14.9922 12.6953 14.9922 11.9141 14.4844 11.4453L10.5781 7.5Z" fill="white"/>
</svg>

<svg xmlns="http://www.w3.org/2000/svg" width="15" height="15" fill="none">
	<path fill="#fff"
		d="m10.578 7.5 3.906-3.906a1.16 1.16 0 0 0 0-1.719l-.859-.86a1.16 1.16 0 0 0-1.719 0L8 4.923 4.055 1.016a1.16 1.16 0 0 0-1.72 0l-.858.859a1.16 1.16 0 0 0 0 1.719L5.383 7.5l-3.906 3.945a1.16 1.16 0 0 0 0 1.72l.859.858a1.16 1.16 0 0 0 1.719 0L8 10.117l3.906 3.906a1.16 1.16 0 0 0 1.719 0l.86-.859a1.16 1.16 0 0 0 0-1.719L10.577 7.5Z" />
</svg>
